X:1
T:The Holy City
T:Michael Maybrick (aka Stephen Adams)
T:The Holy City
T:Public Domain
T:Public Domain
T:Public Domain
T:Public Domain
T:Public Domain
T:Public Domain
T:Public Domain
T:Public Domain
T:Public Domain
T:Public Domain
T:Public Domain
T:Public Domain
T:Public Domain
T:Public Domain
T:Public Domain
C:Michael Maybrick (aka Stephen Adams)
Z:Public Domain
%%score 1 ( 2 3 ) ( 4 5 )
L:1/8
M:4/4
K:Db
V:1 treble 
V:2 treble 
V:3 treble 
V:4 bass 
V:5 bass 
V:1
"^Andante Moderato" z8 | z8 | z8 | z4 z3 A | d>d dd cc z c | BB c>B A2 z A | AA d>c c>B BB | %7
w: |||Last|night I lay a sleep- ing, There|came a dream so fair, I|stood in old Je- ru- sa- lem Be-|
 B>B cd c2 z A | d>d dd cc z c | BB c>B A2 z A | A>A =GA c2 BA | d>d cB e2 z e | %12
w: side the tem- ple there. I|heard the child- ren sing- ing, And|ev- er as they sang, Me-|thought the voice of an- gels From|Heav’n in an- swer rang; Me-|
"^cantabile" e2 e2 =g3 f | (e2 c2) A z d2 | c3 c c2 B2 | A4 z2 A2 |"^a tempo" d3 A A2 A2 | %17
w: thought the voice of|an- * gels From|Heav’n in an- swer|rang:— “Je-|ru- sa- lem! Je-|
 f3 e d2 z2 | d2 (3:2:2(d2 c) d2 g2 | f4 z2 f2 | e4 A2 (3(Ac)e | (a4 d) z g2 | f2 (3(fed) e2 f2 | %23
w: ru- sa- lem!|Lift up~your * gates and|sing, Ho-|san- na in * the|highest * Ho-|san- na * * to your|
 d4 z4 |"^a tempo" z8 | z8 | z8 | z4 z2 z A | d>d dd c>c cc | BB c>B A2 z2 | AA/A/ d>c cB z B | %31
w: King!”||||And|then me- thought my dream was changed, The|streets no long- er rang,|Hushed were the glad ho- san- nas The|
 B>B cd c2 z A | d>d dd c>c cc | BB c>B A2 z A/A/ | A>A =GA c>c BA | d>d cB e2 z e/e/ | %36
w: lit- tle child- ren sang. The|sun grew dark with mys- ter- y, The|morn was cold and chill, As the|sha- dow of a cross a- rose Up-|on a lone- ly hill, As the|
"^cantabile" e2 e2 =g3 f | e2 c2 A z d2 | c2 c2 c3 B | A4 z2 A2 |"^a tempo" d3 A A2 A2 | %41
w: sha- dow of a|cross a- rose Up-|on a lone- ly|hill. “Je-|ru- sa- lem! Je-|
 f3 e d2 z2 | d2 (3:2:2(d2 c) d2 g2 | f4 z2 f2 | e4 A2 (3(Ac)e | (a4 d) z g2 | f2 (3(fed) e2 f2 | %47
w: ru- sa- lem!|Hark!~how the * an- gels|sing, Ho-|san- na in * the|highest, * Ho-|san- na * * to your|
 d4 z4 |"^a tempo" z8 | z8 | z8 | z4 z2 z"^affret." F |"^poco a poco" F>F FF =G>G GG | %53
w: King.”||||And|once a- gain the scene was changed, New|
 B>B B(=A/=G/) A2 z A | =A>A =BB cc z c | =d>d cB =A2 z A | =A>A AA c>c cc | c>c cc e2 z e | %58
w: earth there seem’d to * be, I|saw the Ho- ly Ci- ty Be-|side the tide- less sea; The|light of God was on its streets, The|gates were o- pen wide, And|
"^cantabile" e3 c A2 g2 | (f3 e) d z B2 | A3 B A2 G2 | F4 z2 F2 | B2 B2 c2 c2 | d3 c B2 z B | %64
w: all who would might|en- * ter, And|no one was de-|nied. No|need of moon or|stars by night, Or|
 d3 d e2 e2 | f4 z2 A2 |"^affret." A3 A =G2 A2 | c3 c B2 A2 | d3 d c2"^Allargando" B2 | e4 z2 e2 | %70
w: sun to shine by|day, It|was the new Je-|ru- sa- lem, That|would not pass a-|way, It|
 e2"^Grandioso" e2 =g3 f | e2 c2 A2 d2 | c2 c2 c3 B | A4 z2 A2 |"^a tempo" d3 A A2 A2 | %75
w: was the new Je-|ru- sa- lem, That|would not pass a-|way. “Je-|ru- sa- lem! Je-|
 f3 e d2 z2 | d2 (3:2:2d2 c d2 g2 | f4 z2 f2 | (e4 A2) (3(Ac)e | (a4 d) z g2 | f2 (3(ed)c c2 e2 | %81
w: ru- sa- lem!|Sing, for the night is|o’er! Ho-|sanna * in * the|highest, * Ho-|sanna for * ev- er- more!|
 A4 z2 A2 | (d4 e) z (3:2:2A2 A | f2 (a2 a) z g2 | f2 (3(fe)d e2 a2 | d4 z4 | z8 | z8 |] %88
w: Ho- san-|na * in the|high- est, * Ho-|san- na * for ev- er-|more!”|||
V:2
 ([F,A,D]2 [G,B,E]2 [A,CF]2 [B,DG]2 | [CEA]2 [DFB]2 [EAc]2 [DAd]2) | %2
 ([DBd]2 [CAc][B,GB] [A,FA]2 [G,EG]2 | [F,DF]4) z4 | z2 [A,DFA]2 z2 [A,CGA]2 | %5
 z ([B,GB] [CAc]>[B,GB] [A,FA]2) z2 | z2 [A,DA]2 z2 [B,DGB]2 | %7
 z ([B,=GB][CAc][DBd] [CAc])([_GB=g][EGe][FAf]) | z2 [A,DFA]2 z2 [A,CGA]2 | %9
 z ([B,GB] [CAc]>[B,GB] [A,FA]2) z2 | [A,=B,FA]4 [CEAc]4 | ([F=Gd]2 cB [EAe]4) | %12
 z/ (E/=G/d/ e/d/G/E/) z/ (G/B/d/ =g/d/B/G/) | z/ (E/A/c/ e/c/A/E/) z/ (C/F/A/) z/ ([DF]/B/d/) | %14
 z/ (C/E/G/ c/A/E/C/) z/ (D/E/=G/ B/G/E/D/) | %15
 (3([CA][Aa][Aa]) (3([Aa][Aa][Aa]) (3[Aa][Aa][Aa] (3[Aa][Aa][Aa] | %16
 (3([dfad'][DFA][DFA]) (3[DFA][DFA][DFA] (3[CGA][CGA][CGA] (3[CGA][CGA][CGA] | %17
 (3[FAf][FAf][FAf] (3[FAf][FAf][FAe] (3[FAd][FAd][FAd] (3[FAd][FAd][FAd] | %18
 ([DBd]2 (3:2:2[DBd]2 [C=Ac] [DBd]2 [GBg]2) | [FAdf]4- [FAdf](B/c/ (3def) | %20
 (3[EAe][EAe][EAe] (3[EAe][EAe][EAe] (3[CEA][CEA][CEA] (3(Ace) | %21
 (3[Aca][Aca][Aca] (3[Aca][Aca][Aca] [FBd] z [GBeg]2 | ([FAdf]2 (3[FAf][EGe][DFd] [EGe]2 [FAf]2) | %23
 [DFd]4 (z [Ff]/[Gg]/ (3[Aa][Bb][ca]) | ([dfad']3 [Aa] [cac']2 [Bgb]2) | %25
 ([Ada]2 [Adf]2 [FBd]) (z [GBeg]2 | [FAdf]2 (3[FAf][EGe][DFd] [EGe]2 [FAf]2 | [DFd]4) z4 | %28
 z2 [A,DFA]2 z2 [A,CGA]2 | z ([B,GB] [CAc]>[B,GB] [A,FA]2) z2 | z2 [A,DA]2 z2 [B,DGB]2 | %31
 z ([B,=GB][CAc][DBd] [CAc][_GB=g][EGe][FAf]) | z2 [A,DFA]2 z2 [A,CGA]2 | %33
 z ([B,GB] [CAc]>[B,GB] [A,FA]2) z2 | [A,=B,FA]4 [CEAc]4 | ([F=Gd]2 cB [EAe]4) | %36
 z/ (E/=G/d/ e/d/G/E/) z/ G/(B/d/ =g/d/B/G/) | z/ (E/A/c/ e/c/A/E/) z/ (C/F/A/) z/ ([DF]/B/d/) | %38
 z/ (C/E/A/ c/A/E/C/) z/ (D/E/=G/ B/G/E/D/) | %39
 (3([CA][Aa][Aa]) (3([Aa][Aa][Aa]) (3[Aa][Aa][Aa] (3[Aa][Aa][Aa] | %40
 (3[ead'][DFA][DFA] (3[DFA][DFA][DFA] (3[CGA][CGA][CGA] (3[CGA][CGA][CGA] | %41
 (3[FAf][FAf][FAf] (3[FAf][FAf][FAe] (3[FAd][FAd][FAd] (3[FAd][FAd][FAd] | %42
 ([DBd]2 (3:2:2[DBd]2 [C=Ac] [DBd]2 [GBg]2) | [FAdf]4- [FAdf]B/c/ (3(def) | %44
 (3[EAe][EAe][EAe] (3[EAe][EAe][EAe] (3[CEA][CEA][CEA] (3(Ace) | %45
 (3[Aca][Aca][Aca] (3[Aca][Aca][Aca] [FBd] z ([GBeg]2 | [FAdf]2 (3[FAf][EGe][DFd] [EGe]2 [FAf]2) | %47
 [DFd]4 (3z ([Ff][Gg] (3[Aa][Bb][cc']) | ([dfad']3 [Aa] [cac']2 [Bgb]2) | %49
 ([Ada]2 [Adf]2 [FBd]) z [GBeg]2 | ([FAdf]2 (3[FAf][EGe][DFd] [EGe]2 [FAf]2) | %51
 [DFd]2 [F,F]2 [F,F]2 [F,F]2 | [=A,CF]4 [B,=D=G]4 | (=D2 _D2 [CF=A]2) [=A,CFAcf=a]2 | %54
 [=A,F=A]2 [=B,F=B]2 [CFAc]2 [CFAcf=ac']2 | (=d2 cB [=A,F=A]2) z2 | %56
 ([=A,=DF=A]4 [C=Ec]2) [A,CEAc=e=ac']2 | ([CEAc]4 [E=GBe]2) [EGBe=gbe']2 | %58
 z/ (E/A/c/ e/c/A/E/) z/ (G/c/e/ g/e/c/G/) | z/ (F/A/d/ f/d/A/F/) z/ (D/G/B/ d/B/G/D/) | %60
 z/ (A,/D/F/ A/F/D/A,/) z/ (G,/C/E/ G/E/C/G,/) | z/ (F,/A,/D/ F/D/A,/F,/) z/ F,/=A,/E/ F/E/A,/F,/ | %62
 z (B,/D/ F/B/F/[B,D]/) z/ (C/E/=A/ c/A/E/C/) | z/ (D/F/B/ d/B/F/D/) z/ (D/F/B/ d/B/F/D/) | %64
 z/ (D/G/B/ d/B/G/D/) z/ (E/G/c/ e/c/G/E/) | z/ (F/A/d/ f/d/A/F/) z/ (F/A/d/ f/d/A/F/) | %66
 z/ (A/=B/f/ a/f/B/A/) z/ (A/B/f/ a/f/B/A/) | z/ (c/e/a/ c'/a/e/c/) z/ (c/e/a/ c'/a/e/c/) | %68
 z/ (d/=g/b/ d'/b/g/d/) z/ (e/g/b/ e'/b/g/e/) | z/ (e/a/c'/ e'/c'/a/e/) (e'/d'/=g/e/ e'/d'/g/e/) | %70
 z/ (E/A/c/ e/A/c/e/) [=Gd=g]3 [Ff] | [EAe]2 [C=Gc]2 [A,CFA]2 [DFBd]2 | %72
 ([CAc]2 [=DAc]2 [E=G-]2 G-[GB]) | (3[CA][Aa][Aa] (3[Aa][Aa][Aa] (3[Aa][Aa][Aa] (3[Aa][Aa][Aa] | %74
 (3([dfad'][DFA][DFA]) (3[DFA][DFA][DFA] (3[CGA][CGA][CGA] (3[CGA][CGA][CGA] | %75
 (3[FAf][FAf][FAf] (3[FAf][FAf][FAe] (3[FAd][FAd][FAd] (3[FAd][FAd][FAd] | %76
 ([DBd]2 (3:2:2[DBd]2 [C=Ac] [DBd]2 [GBg]2) | [FAdf]4- [FAdf](B/c/ (3def) | %78
 (3[EAe][EAe][EAe] (3[EAe][EAe][EAe] (3[CEA][CEA][CEA] (3(Ace) | %79
 (3[Aca][Aca][Aca] (3[Aca][Aca][Aca] [FBd] z [GBg]2 | %80
 [FAf]2 (3(fe)d (3[EGc][EGc][EGc] (3[EGe][EGe][EGe] | %81
 (3[DA][DA][DA] (3[DA][DA][DA] (3[CGA][CGA][CGA] (3[CEA][CEA][CEA] | %82
 (3[DAd][DAd][DAd] (3[DAd][DAd][DAd] (3[GAce][GAce][GAce] (3[GAce][GAce][GAce] | %83
 [FAdf]2 [Ada]2 [ABfa] z [GBeg]2 | [FAdf]2 z2 [EGce]4 | %85
 (3[DFAd][DFAd][DFAd] (3[DFAd][DFAd][DFAd] (3[FAdf][FAdf][FAdf] (3[cfa][cfa][cfa] | %86
 [dfad']2 z2 [FAcfad'f']2 z2 | z8 |] %88
V:3
 x8 | x8 | x8 | x8 | x8 | x8 | x8 | x8 | x8 | x8 | x8 | x2 [E=G]2 x4 | x8 | x8 | x8 | x8 | x8 | %17
 x8 | x8 | x6 [FA]2 | x8 | x8 | x8 | x8 | x8 | x8 | x8 | x8 | x8 | x8 | x8 | x8 | x8 | x8 | x8 | %35
 x2 [E=G]2 x4 | x8 | x8 | x8 | x8 | x8 | x8 | x8 | x6 [FA]2 | x8 | x8 | x8 | x8 | x8 | x8 | x8 | %51
 x8 | x8 | [FB]4 x4 | x8 | =E4 x4 | x8 | x8 | x8 | x8 | x8 | x8 | x8 | x8 | x8 | x8 | x8 | x8 | %68
 x8 | x8 | x8 | x8 | x2 c3 _D2 x | x8 | x8 | x8 | x8 | x6 [FA]2 | x8 | x8 | x2 [FA]2 x4 | x8 | x8 | %83
 x8 | x8 | x8 | x8 | x8 |] %88
V:4
 [D,,D,]4- ([D,,D,][C,,C,]) [B,,,B,,]2 | [A,,,A,,]4- ([A,,,A,,][G,,,G,,]) [F,,,F,,]2 | %2
 [E,,,E,,]4 [A,,,A,,-]4 | [D,,A,,]4 z4 | [D,,D,]2 z2 [E,,E,]2 z2 | A,,,2 A,,2- [D,,A,,]2 D,2 | %6
 [D,,,F,,]4 [E,,,G,,]4 | E,,2 E,2 [A,,,A,,]2 [E,G,A,C]2 | [D,,D,]2 z2 [E,,E,]2 z2 | %9
 A,,,2 A,,2- [D,,A,,]2 D,2 | [=D,,=D,]4 [E,,E,]4 | [E,,,E,,]2 [E,B,D]2 [C,,C,]2 [E,A,C]2 | %12
 [B,,,B,,]2 [E,=G,B,D]2 [E,,,E,,]2 [E,G,B,D]2 | [C,,C,]2 [E,A,C]2 [F,,F,]2 [B,,,B,,]2 | %14
 (E,,2 E,2) [E,,,E,,]4 | [A,,,A,,]2 [G,A,-G]2 [F,A,-F]2 [G,A,C]2 | %16
 (3[D,,D,][D,A,][D,A,] (3[D,A,][D,A,][D,A,] (3[D,A,][D,A,][D,A,] (3[D,A,][D,A,][D,A,] | %17
 (3([D,,D,][D,A,][D,A,]) (3([D,A,][D,A,][D,A,]) (3:2:6([D,A,][D,A,][D,A,][D,A,][D,A,][D,A,]) | %18
 (3([G,,,G,,][D,G,B,][D,G,B,]) (3([D,G,B,][D,G,B,][D,G,B,]) (3([G,,,G,,][D,G,B,][D,G,B,]) (3([D,G,B,][D,G,B,][D,G,B,]) | %19
 (3:2:6([D,,D,][F,,F,][G,,G,][A,,A,][B,,B,][C,C] [D,D]) z [D,,D,]2 | %20
 [C,,C,]2 [E,A,C]2 [A,,,A,,]2 [E,A,C]2 | [F,,,F,,]2 [F,A,C]2 [B,,,B,,] z [E,,,E,,]2 | %22
 [A,,,A,,]2 [F,A,D]2 [A,,,A,,]2 [E,G,A,C]2 | ([D,,D,]2 [C,,C,]2 [B,,,B,,]2 [A,,,A,,]2) | %24
 (3D,,[D,F,A,][D,F,A,] (3[D,F,A,][D,F,A,][D,F,A,] (3[G,,,G,,][D,G,B,][D,G,B,] (3[D,G,B,][D,G,B,][D,G,B,] | %25
 (3([F,,,F,,][D,,D,][E,,E,] (3[F,,F,][G,,G,][A,,A,] [B,,B,]) z [E,,E,]2 | %26
 [A,,,A,,]2 [F,A,D]2 [A,,,A,,]2 [E,G,A,C]2 | (D,2 C,2 B,,2 A,,2) | [D,,A,,]2 z2 [C,,E,]2 z2 | %29
 A,,,2 (A,,2 [D,,A,,]2) D,2 | [A,,,F,,]4 [G,,,G,,]4 | (E,,2 E,2 [A,,,A,,]2) [E,G,A,C]2 | %32
 [D,,D,]2 z2 [E,,E,]2 z2 | A,,,2 (A,,2 [D,,A,,]2) D,2 | [=D,,=D,]4 [E,,E,]4 | %35
 [E,,,E,,]2 [E,B,D]2 [C,,C,]2 [E,A,C]2 | [B,,,B,,]2 [E,=G,B,D]2 [E,,,E,,]2 [E,G,B,D]2 | %37
 [C,,C,]2 [E,A,C]2 [F,,F,]2 [B,,,B,,]2 | E,,2 E,2 [E,,,E,,]4 | %39
 [A,,,A,,]2 ([B,C-G]2 [A,C-F]2 [G,CE]2) | %40
 (3[D,,D,][D,A,][D,A,] (3[D,A,][D,A,][D,A,] (3[D,A,][D,A,][D,A,] (3[D,A,][D,A,][D,A,] | %41
 (3[D,,D,][D,A,][D,A,] (3[D,A,][D,A,][D,A,] (3[D,A,][D,A,][D,A,] (3[D,A,][D,A,][D,A,] | %42
 (3[G,,,G,,][D,G,B,][D,G,B,] (3[D,G,B,][D,G,B,][D,G,B,] (3[G,,,G,,][D,G,B,][D,G,B,] (3[D,G,B,][D,G,B,][D,G,B,] | %43
 (3([D,,D,][F,,F,][G,,G,] (3[A,,A,][B,,B,][C,C] [D,D]) z [D,,D,]2 | %44
 [C,,C,]2 [E,A,C]2 [A,,,A,,]2 [E,A,C]2 | [F,,,F,,]2 [F,A,C]2 [B,,,B,,] z [E,,,E,,]2 | %46
 [A,,,A,,]2 [F,A,D]2 [A,,,A,,]2"^colla voce" [E,G,A,C]2 | %47
 ([D,,D,]2 [C,,C,]2 [B,,,B,,]2 [A,,,A,,]2) | %48
 (3D,,[D,F,A,][D,F,A,] (3[D,F,A,][D,F,A,][D,F,A,] (3[G,,,G,,][D,G,B,][D,G,B,] (3[D,G,B,][D,G,B,][D,G,B,] | %49
 (3([F,,,F,,][D,,D,][E,,E,] (3[F,,F,][G,,G,][A,,A,] [B,,B,]) z [E,,E,]2 | %50
 [A,,,A,,]2 [F,A,D]2 [A,,,A,,]2 [E,G,A,C]2 | [D,,D,]2 z6 | [F,,,F,,]4 [F,,,F,,]4 | [F,,,F,,]6 z2 | %54
 [=D,,=D,]2 [_D,,_D,]2 [C,,C,]2 z2 | (B,2 =A,=G, [F,,F,]2) [=E,,=E,]2 | %56
 ([=D,,=D,]2 [C,,C,][B,,,B,,] [=A,,,=A,,]2) z2 | ([A,,,A,,]2 [=G,,,=G,,][F,,,F,,] [E,,,E,,]2) z2 | %58
 [C,,C,]2 [E,A,C]2 [A,,,A,,]2 [E,A,C]2 | [D,,D,]2 [F,A,D]2 [G,,,G,,]2 [D,G,B,]2 | %60
 (A,,,2 A,,2) (A,,,2 A,,2) | D,,2 B,,2 C,,2 C,2 | [B,,,D,]2 [B,,D,F,]2 [F,,,F,,]2 [C,F,=A,]2 | %63
 [B,,,B,,]2 [D,F,B,]2 [B,,,B,,]2 [A,,,A,,]2 | [G,,,G,,]2 [D,G,B,]2 [E,,,E,,]2 [E,G,C]2 | %65
 [D,,,D,,]2 [F,A,D]2 [D,,D,]2 [F,A,D]2 | [=D,,=D,]2 [F,A,=B,=D]2 [=D,,,D,,]2 [F,A,B,D]2 | %67
 [E,,E,]2 [E,A,CE]2 [E,,,E,,]2 [E,A,CE]2 | [E,,E,]2 [E,=G,B,D]2 [D,,D,]2 [E,G,B,D]2 | %69
 [C,,C,]2 [E,A,C]2 [B,,,B,,]2 [D,E,=G,B,]2 | [A,,,A,,]2 [E,A,C]2 [B,,,B,,]2 [E,B,D]2 | %71
 [C,,C,]2 [E,,E,]2 [F,,F,]2 [B,,,B,,]2 | [E,,E,]4 [E,,,E,,]4 | %73
 [A,,,A,,]2 ([B,C-G]2 [A,C-F]2 [G,C]2) | %74
 (3[D,,D,]([D,A,][D,A,]) (3[D,A,][D,A,][D,A,] (3[D,A,][D,A,][D,A,] (3[D,A,][D,A,][D,A,] | %75
 (3[B,,,F,][D,A,][D,A,] (3[D,A,][D,A,][D,A,] (3[D,A,][D,A,][D,A,] (3[D,A,][D,A,][D,A,] | %76
 (3[G,,,G,,][D,G,B,][D,G,B,] (3[D,G,B,][D,G,B,][D,G,B,] (3[G,,,G,,][D,G,B,][D,G,B,] (3[D,G,B,][D,G,B,][D,G,B,] | %77
 (3[D,,D,][F,,F,][G,,G,] (3[A,,A,][B,,B,][C,C] [D,D] z [D,,D,]2 | %78
 [C,,C,]2 [E,A,C]2 [A,,,A,,]2 [E,A,C]2 | [F,,,F,,]2 [F,A,C]2 [B,,,B,,] z [E,,,E,,]2 | %80
 [F,,,A,,]2 [F,A,D]2 [A,,,A,,]2 [E,A,C]2 | ([F,,F,]2 [D,,D,]2 [E,,E,]2 [G,,,G,,]2) | %82
 [F,,,F,,]2 [D,F,A,]2 [E,,,E,,]2 [E,G,A,C]2 | [D,,,D,,]2 [E,,,F,,]2 [G,,,G,,] z [E,,,E,,]2 | %84
 [A,,,A,,]2 z2 [A,,,A,,]4 | ([D,,D,]2 (3:2:2[C,,C,]2 [B,,,B,,] [A,,,A,,]2 [F,,,F,,]2 | %86
 [D,,,D,,]2) z6 | [F,,,D,,D,D]8 |] %88
V:5
 x8 | x8 | x8 | x8 | x8 | x8 | x8 | x8 | x8 | x8 | x8 | x8 | x8 | x8 | x8 | x8 | x8 | x8 | x8 | %19
 x8 | x8 | x8 | x8 | x8 | x8 | x8 | x8 | D,,8 | x8 | x8 | x8 | x8 | x8 | x8 | x8 | x8 | x8 | x8 | %38
 x8 | x8 | x8 | x8 | x8 | x8 | x8 | x8 | x8 | x8 | x8 | x8 | x8 | x8 | x8 | x8 | x8 | C,4 x4 | x8 | %57
 x8 | x8 | x8 | x8 | x8 | x8 | x8 | x8 | x8 | x8 | x8 | x8 | x8 | x8 | x8 | x8 | x8 | x8 | x8 | %76
 x8 | x8 | x8 | x8 | x8 | x8 | x8 | x8 | x8 | x8 | x8 | x8 |] %88

